!!!COM: Bartok, Bela
!!!OTL: Triplets in 9/8 Time
!!!ONM: 118
!!!OPR: Mikrokosmos, Vol. IV
!! Boosey & Hawkes Ltd. (London) 1955, copyright 1940 pp.42-43
**kern	**kern
*M9/8	*M9/8
{8c#	{8cc#
8e	8ee
8c#	8cc#
=1	=1
8f^	8ff^
8d	8dd
8cn	8ccn
8B	8b
8A	8a
8G	8g
8F	8f
8E	8e
8D	8d
=2	=2
8C}	8c}
8r	8r
8r	8r
4r	4r
8r	8r
{8C	{8c
8D	8d
8E	8e
=3	=3
[4.G*	[4.g*
4G]	4g]
8D#}	8d#}
{8E	{8e
8Dn	8dn
8C	8c
=4	=4
[4.AA*	[4.A*
4AA]	4A]
8D-}	8d-}
{8C	{8c
8Dn	8dn
8E	8e
=5	=5
4G*	4g*
8D#}	8d#}
{8Fn	{8fn
8E	8e
8Dn	8dn
8C	8c
8BB	8B
8AA	8A
=6	=6
[2.GG#^	[2.G#^
4GG#]	4G#]
8C#}	8c#}
=7	=7
4r	4r
8r	8r
4r	4r
8r	8r
4.r	{8dd
.	8cc
.	8cc-
=8	=8
{8A	4.b-
8G	.
8G-	.
4.F	4ee-}
.	8r
4B-}	{8dd
.	8cc
8r	8cc-
=9	=9
{8A	4.b-
8G	.
8G-	.
4.F	4f}
.	8r
4C}	{8e
.	8f#
8r	8g#
=10	=10
{8C#	[4.a*
8D#	.
8E#	.
[4.F#*	8a]
.	8b
.	8cc#
4F#]	8dd
.	8ccn
8G#	8b
=11	=11
8A}	8a}
8r	8r
8r	8r
4r	4r
8r	8r
{8d	{8dd
8c#	8cc#
8B	8b
=12	=12
8A	8a
8G	8g
8F	8f
8E}	8e}
8r	8r
8r	8r
{8A	{8a
8G#	8g#
8F#	8f#
=13	=13
8E	8e
8D	8d
8C	8c
8BB}	8B}
8r	8r
8r	8r
{8E	{8e
8D#	8d#
8C#	8c#
=14	=14
[4.BB^	8B
.	8A
.	8G
8BB]	[4.F#^
8AA	.
8GG	.
8FF#	8F#]
8GG#	8G#
8AA#	8A#
=15	=15
8AAn}	8An}
8r	8r
8r	8r
4r	4r
8r	8r
{8AA-	4r
8BBn	.
8AA-	8r
=16	=16
8C*	4r
8AAn	.
8GG	8r
8FF	4r
8EE	.
8DD	8r
8CC}	{8e-
8r	8f#
8r	8e-
=17	=17
4r	8g*
.	8en
8r	8d
4r	8c
.	8B
8r	8A
{8A-	8A-}
8Bn	8r
8A-	8r
=18	=18
8c*	{8a-*
8B	8b
8G	8g}
8F	4r
8E	.
8D	8r
[4.D-	{8b-
.	8bn
.	8g
=19	=19
4.D-_	8cc*
.	8an
.	8g
4D-]	8f
.	8e
8C-}	8d}
[{4.BB-	{8d-
.	8e-
.	8en
=20	=20
8BB-]	[4.g
8C	.
8D-	.
[4.G	4g]
.	8e-}
4G]	{8A
.	8B
8E-}	8c
=21	=21
{8AA	[4.en
8BB	.
8C	.
[4.E	4e]
.	8c#}
4E]	{8F
.	8G
8C#}	8A
=22	=22
{8FF	8B}
8GG	8r
8AA	8r
8BB}	{8G
8r	8A
8r	8B
{8GG-	8c}
8AA-	8r
8BB-	8r
=23	=23
8C}	{8A-
8r	8B-
8r	8c
{8GG	8d-}
8AA	8r
8BB	8r
8C#}	{8An
8r	8Bn
8r	8c#
=24	=24
{8AA	[4.d^
8BB	.
8C#	.
8D	8d]
8E	8e
8F#	8f#
8G	8g
8A	8a
8B	8b
=25	=25
8B-}	8b-}
8r	8r
8r	8r
4r	4r
8r	8r
4r	{8bn
.	8a
8r	8a-
=26	=26
{8Bn	[4.cc*
8A	.
8A-	.
[4.c*	8cc]
.	8b-
.	8a-
8c]	8g
8B-	8an
8A-	8bn
=27	=27
8G	[4.cc*
8An	.
8Bn	.
[4.c*	8cc]
.	8b-
.	8a-
8c]	8g
8B-	8an
8A-	8bn
=28	=28
8G	8cc}
8An	8r
8Bn}	8r
{8c	{8cc
8B-	8b-
8A-	8a-
8G	8g
8F	8f
8E-	8e-
=29	=29
8D-}	8d-}
8r	8r
8r	8r
4r	4r
8r	8r
{8F#	{8f#
8E	8e
8Dn	8dn
=30	=30
4.C	4.c
8GG}	8G}
8r	8r
8r	8r
{8C	{8c
8D	8d
8E	8e
=31	=31
4.F#	4.f#
8B}	8b}
8r	8r
8r	8r
{8F	{8f
8E	8e
8D	8d
=32	=32
4C	4c
8GG}	8G}
{8C	{8c
8D	8d
8E	8e
8F	8f
8E-	8e-
8D-	8d-
=33	=33
8C}	8c}
8r	8r
8r	8r
4r	4r
8r	8r
4r	4r
8r	8r
==	==
*-	*-
